X:1
T:Title
%%score ( 1 2 ) 3
L:1/8
Q:1/4=100
M:6/8
K:G
V:1 treble nm="Grand Piano, Soprano"
V:2 treble 
V:3 bass nm="Choir Pad, The Bells"
V:1
 z d2- d2- d/ z/ | z d2- d2- d/ z/ | [Gd] [Gd]2 [GB] [DG]2 | D [^CE]2- [CE] D2 | z =c2- c3 | %5
 z c2- c2- c/ z/ | [Fc] [Fc]2 [FA] [DF]2 | [Dc] [DB]2- [DB]2- [DB]/ z/ | z d2- d2- d/ z/ | %9
 z d2- d2- d/ z/ | [Gd] [Gd]2 [Gd] [A^d]2 | [A^d] [Ge]2- [Ge] [GB]2 | z e2- e2- e/ z/ | %13
 z d2- d2- d/ z/ | [Gd] [Fd]2 [Fc] [GB]2 | [FA] [DG]2- [DG]3- | [DG] [B,D]2 [B,DB] [B,DA]2 | %17
 [B,DG] [B,D]2 [B,DB] [B,DA]2 | [B,DG] [DF]2 [DFd] [DFd]2 | [DFd] [DFd]2- [DFd]3- | %20
 [DFd] D2 [Dc] [DB]2 | [DA] D2 [Dc] [DB]2 | [DA] [DG]2 [DGd] [DGd]2 | [DGd] [DGd]2- [DGd]3- | %24
 [DGd] [B,D]2 [B,DB] [B,DA]2 | [B,DG] [B,D]2 [B,DB] [B,DA]2 | [B,DG] [CE]2 [EGe] [EGe]2 | z6 | %28
 z2 d- d3- | d z d- d3- | d3 z3 | z6 | z6 |] %33
V:2
 .d3 G F2 | .d3 F G2 | x6 | x6 | .^c3 F F2 | .c3 F F2 | x6 | x6 | .d3 G F2 | .d3 F G2 | x6 | x6 | %12
 .e3 G G2 | .e3 G G2 | x6 | x6 | x6 | x6 | x6 | x6 | x6 | x6 | x6 | x6 | x6 | x6 | x6 | %27
 [EGe] [EGe]2- [EGe]3- | [EGe] .d2 z GF- | F .d2 z FG- | G[Gd][Fd]- [Fd][Fc][GB]- | %31
 [GB][FA][DG]- [DG]3- | [DG]3 z3 |] %33
V:3
 z3 [G,B,] [A,C]2 | z3 [A,C] [G,B,]2 | [G,B,] [G,B,]2 [G,D] [G,B,]2 | %3
 [G,B,] [G,_B,]2- [G,B,] [G,=B,]2 | z3 [D,A,] [D,A,]2 | z3 [D,A,] [D,A,]2 | %6
 [D,A,] [D,A,]2 [D,A,] [D,A,]2 | [D,A,] [G,,G,]2- [G,,G,]2- [G,,G,]/ z/ | z3 [G,B,] [A,C]2 | %9
 z3 [A,C] [G,B,]2 | [G,B,] [G,B,]2 [G,B,] [F,B,]2 | [F,B,] [E,B,]2- [E,B,] [E,B,]2 | %12
 z3 [C,C] [C,C]2 | z3 [D,B,] [D,B,]2 | [D,B,] [D,A,]2 [D,A,] [D,D]2 | [D,C] [G,B,]2- [G,B,]3- | %16
 [G,B,] [G,,G,]2 [G,,G,] [G,,G,]2 | [G,,G,] [G,,G,]2 [G,,G,] [G,,G,]2 | %18
 [G,,G,] [D,A,]2 [D,A,] [D,A,]2 | [D,A,] [D,A,]2- [D,A,]3- | [D,A,] [D,F,]2 [D,F,] [D,G,]2 | %21
 [D,F,] [D,F,]2 [D,F,] [D,G,]2 | [D,F,] [G,B,]2 [G,B,] [G,B,]2 | [G,B,] [G,B,]2- [G,B,]3- | %24
 [G,B,] [G,,G,]2 [G,,G,] [G,,G,]2 | [G,,G,] [G,,G,]2 [G,,G,] [G,,G,]2 | %26
 [G,,G,] [C,G,]2 [C,C] [C,C]2 | [C,C] [C,C]2- [C,C]3- | [C,C]3 z [G,B,][A,C]- | %29
 [A,C]3 z [A,C][G,B,]- | [G,B,][G,B,][D,A,]- [D,A,][D,A,][D,D]- | [D,D][D,C][G,B,]- [G,B,]3- | %32
 [G,B,]3 z3 |] %33

